; generated by Slic3r 1.3.0 on 2020-03-14 at 17:16:38

; external perimeters extrusion width = 0.44mm (2.38mm^3/s)
; perimeters extrusion width = 0.56mm (3.10mm^3/s)
; infill extrusion width = 0.50mm (4.57mm^3/s)
; solid infill extrusion width = 0.56mm (5.17mm^3/s)
; top infill extrusion width = 0.56mm (5.17mm^3/s)

M107
; -- TypeA START GCODE --
G21        ;metric values
G90        ;absolute positioning
G28     ;move to endstops
G29		;allows for auto-levelling
G1 Z15.0 F12000 ;move the platform down 15mm
G1 X150 Y5 F12000 ;center
M140 S50;Prep Heat Bed
M109 S210 ;Heat hotend to temp
M190 S50 ;Heat Bed to temp
G1 X150 Y5 Z0.3 ;move the platform to purge extrusion
G92 E0 ;zero the extruded length
G1 F200 X250 E30 ;extrude 30mm of feed stock
G92 E0 ;zero the extruded length again
G1 X150 Y150  Z25 F12000 ;recenter and begin
G1 F12000

; Filament gcode

G21 ; set units to millimeters
G90 ; use absolute coordinates
M82 ; use absolute distances for extrusion
G92 E0
G1 Z0.200 F6000.000
; LAYER: 0 
; LAYERZ: 0.2
G1 E-0.50000 F2400.00000
G92 E0
G1 X123.040 Y103.710 F6000.000
G1 E0.50000 F2400.00000
G1 F900
G1 X123.466 Y103.237 E0.50000
G1 X123.980 Y102.864 E0.50000
G1 X124.563 Y102.605 E0.50000
G1 X125.498 Y102.457 E0.50000
G1 X179.501 Y102.457 E0.50000
G1 X180.135 Y102.524 E0.50000
G1 X180.740 Y102.721 E0.50000
G1 X181.290 Y103.040 E0.50000
G1 X181.760 Y103.462 E0.50000
G1 X182.134 Y103.977 E0.50000
G1 X182.395 Y104.563 E0.50000
G1 X182.543 Y105.498 E0.50000
G1 X182.543 Y199.501 E0.50000
G1 X182.476 Y200.135 E0.50000
G1 X182.279 Y200.740 E0.50000
G1 X181.960 Y201.290 E0.50000
G1 X181.538 Y201.760 E0.50000
G1 X181.023 Y202.134 E0.50000
G1 X180.436 Y202.395 E0.50000
G1 X179.502 Y202.543 E0.50000
G1 X154.578 Y202.543 E0.50000
G1 X153.944 Y202.476 E0.50000
G1 X153.343 Y202.281 E0.50000
G1 X152.792 Y201.963 E0.50000
G1 X152.319 Y201.538 E0.50000
G1 X151.943 Y201.020 E0.50000
G1 X151.730 Y200.569 E0.50000
G1 X122.650 Y123.011 E0.50000
G1 X122.491 Y122.401 E0.50000
G1 X122.457 Y121.947 E0.50000
G1 X122.457 Y105.499 E0.50000
G1 X122.524 Y104.865 E0.50000
G1 X122.719 Y104.264 E0.50000
G1 X123.009 Y103.761 E0.50000
G1 E-0.00000 F2400.00000
G92 E0
G1 X182.293 Y199.557 F6000.000
G1 E0.50000 F2400.00000
G1 F540
G1 X182.238 Y200.082 E0.51472
G1 X182.057 Y200.638 E0.53105
G1 X181.764 Y201.145 E0.54738
G1 X181.373 Y201.580 E0.56371
G1 X180.899 Y201.924 E0.58004
G1 X180.370 Y202.160 E0.59623
G1 X179.484 Y202.300 E0.62125
G1 X154.590 Y202.300 E1.31606
G1 X153.997 Y202.238 E1.33268
G1 X153.441 Y202.057 E1.34901
G1 X152.934 Y201.764 E1.36534
G1 X152.499 Y201.373 E1.38167
G1 X152.154 Y200.898 E1.39807
G1 X151.954 Y200.475 E1.41110
G1 X122.882 Y122.939 E3.72225
G1 X122.731 Y122.359 E3.73896
G1 X122.700 Y121.939 E3.75074
G1 X122.700 Y105.510 E4.20924
G1 X122.762 Y104.918 E4.22586
G1 X122.943 Y104.362 E4.24220
G1 X123.230 Y103.865 E4.25819
G1 X123.628 Y103.420 E4.27486
G1 X124.101 Y103.076 E4.29118
G1 X124.630 Y102.840 E4.30736
G1 X125.516 Y102.700 E4.33239
G1 X179.490 Y102.700 E5.83878
G1 X180.070 Y102.761 E5.85507
G1 X180.639 Y102.943 E5.87174
G1 X181.145 Y103.236 E5.88806
G1 X181.580 Y103.627 E5.90439
G1 X181.924 Y104.101 E5.92072
G1 X182.160 Y104.630 E5.93691
G1 X182.300 Y105.516 E5.96193
G1 X182.299 Y199.498 E8.58495
G1 X181.933 Y199.733 F6000.000
G1 X181.938 Y199.520 F6000.000
G1 F540
G1 X181.886 Y200.007 E8.59862
G1 X181.729 Y200.492 E8.61286
G1 X181.474 Y200.934 E8.62710
G1 X181.133 Y201.313 E8.64133
G1 X180.720 Y201.613 E8.65557
G1 X180.267 Y201.814 E8.66939
G1 X179.456 Y201.943 E8.69231
G1 X154.608 Y201.943 E9.38581
G1 X154.072 Y201.886 E9.40087
G1 X153.587 Y201.729 E9.41510
G1 X153.145 Y201.474 E9.42934
G1 X152.766 Y201.133 E9.44358
G1 X152.462 Y200.715 E9.45799
G1 X152.284 Y200.336 E9.46967
G1 X123.223 Y122.831 E11.77989
G1 X123.085 Y122.301 E11.79518
G1 X123.057 Y121.925 E11.80569
G1 X123.057 Y105.529 E12.26330
G1 X123.113 Y104.993 E12.27836
G1 X123.271 Y104.508 E12.29259
G1 X123.520 Y104.076 E12.30651
G1 X123.868 Y103.686 E12.32109
G1 X124.280 Y103.387 E12.33529
G1 X124.733 Y103.186 E12.34911
G1 X125.544 Y103.057 E12.37204
G1 X179.471 Y103.057 E13.87713
G1 X179.996 Y103.112 E13.89187
G1 X180.493 Y103.272 E13.90645
G1 X180.934 Y103.526 E13.92065
G1 X181.313 Y103.867 E13.93489
G1 X181.613 Y104.280 E13.94912
G1 X181.814 Y104.733 E13.96295
G1 X181.943 Y105.544 E13.98587
G1 X181.943 Y199.460 E16.60706
G1 X181.583 Y199.483 F6000.000
G1 F540
G1 X181.535 Y199.933 E16.61969
G1 X181.401 Y200.346 E16.63183
G1 X181.183 Y200.723 E16.64397
G1 X180.892 Y201.046 E16.65611
G1 X180.540 Y201.302 E16.66825
G1 X180.165 Y201.469 E16.67972
G1 X179.428 Y201.586 E16.70055
G1 X154.627 Y201.586 E17.39274
G1 X154.147 Y201.535 E17.40622
G1 X153.733 Y201.401 E17.41837
G1 X153.356 Y201.183 E17.43051
G1 X153.033 Y200.892 E17.44265
G1 X152.771 Y200.532 E17.45508
G1 X152.613 Y200.197 E17.46541
G1 X123.564 Y122.723 E19.77470
G1 X123.439 Y122.242 E19.78857
G1 X123.414 Y121.912 E19.79781
G1 X123.414 Y105.548 E20.25453
G1 X123.465 Y105.067 E20.26801
G1 X123.599 Y104.654 E20.28015
G1 X123.811 Y104.286 E20.29200
G1 X124.109 Y103.953 E20.30448
G1 X124.460 Y103.698 E20.31657
G1 X124.835 Y103.531 E20.32803
G1 X125.572 Y103.414 E20.34886
G1 X179.452 Y103.414 E21.85265
G1 X179.922 Y103.464 E21.86583
G1 X180.348 Y103.600 E21.87832
G1 X180.723 Y103.817 E21.89041
G1 X181.046 Y104.108 E21.90255
G1 X181.302 Y104.460 E21.91469
G1 X181.469 Y104.835 E21.92615
G1 X181.586 Y105.572 E21.94698
G1 X181.586 Y199.423 E24.56634
G1 X181.228 Y199.445 F6000.000
G1 F540
G1 X181.184 Y199.858 E24.57792
G1 X181.073 Y200.200 E24.58797
G1 X180.893 Y200.512 E24.59802
G1 X180.652 Y200.780 E24.60806
G1 X180.361 Y200.991 E24.61811
G1 X180.063 Y201.124 E24.62721
G1 X179.400 Y201.229 E24.64594
G1 X154.646 Y201.229 E25.33683
G1 X154.221 Y201.184 E25.34874
G1 X153.879 Y201.073 E25.35879
G1 X153.567 Y200.893 E25.36884
G1 X153.300 Y200.652 E25.37889
G1 X153.080 Y200.349 E25.38933
G1 X152.942 Y200.058 E25.39832
G1 X123.905 Y122.615 E27.70667
G1 X123.793 Y122.184 E27.71912
G1 X123.771 Y121.899 E27.72710
G1 X123.771 Y105.567 E28.18292
G1 X123.816 Y105.142 E28.19484
G1 X123.927 Y104.800 E28.20488
G1 X124.102 Y104.497 E28.21465
G1 X124.350 Y104.219 E28.22504
G1 X124.639 Y104.009 E28.23501
G1 X124.937 Y103.876 E28.24412
G1 X125.600 Y103.771 E28.26285
G1 X179.433 Y103.771 E29.76533
G1 X179.848 Y103.815 E29.77697
G1 X180.203 Y103.928 E29.78736
G1 X180.512 Y104.107 E29.79733
G1 X180.779 Y104.348 E29.80737
G1 X180.991 Y104.639 E29.81742
G1 X181.124 Y104.937 E29.82652
G1 X181.229 Y105.600 E29.84526
G1 X181.229 Y199.385 E32.46279
G1 E31.96279 F2400.00000
G92 E0
G1 X133.601 Y114.406 F6000.000
G1 E0.50000 F2400.00000
G1 F540
G1 X133.180 Y114.593 E0.51284
G1 X132.730 Y114.689 E0.52569
G1 X132.270 Y114.689 E0.53853
G1 X131.820 Y114.593 E0.55137
G1 X131.399 Y114.406 E0.56421
G1 X131.027 Y114.136 E0.57706
G1 X130.719 Y113.794 E0.58990
G1 X130.489 Y113.395 E0.60274
G1 X130.347 Y112.958 E0.61559
G1 X130.299 Y112.500 E0.62843
G1 X130.347 Y112.042 E0.64127
G1 X130.489 Y111.605 E0.65411
G1 X130.719 Y111.206 E0.66696
G1 X131.027 Y110.864 E0.67980
G1 X131.399 Y110.594 E0.69264
G1 X131.820 Y110.407 E0.70549
G1 X132.270 Y110.311 E0.71833
G1 X132.730 Y110.311 E0.73117
G1 X133.180 Y110.407 E0.74401
G1 X133.601 Y110.594 E0.75686
G1 X133.973 Y110.864 E0.76970
G1 X134.281 Y111.206 E0.78254
G1 X134.511 Y111.605 E0.79539
G1 X134.653 Y112.042 E0.80823
G1 X134.701 Y112.500 E0.82107
G1 X134.653 Y112.958 E0.83391
G1 X134.511 Y113.395 E0.84676
G1 X134.281 Y113.794 E0.85960
G1 X133.973 Y114.136 E0.87244
G1 X133.649 Y114.371 E0.88361
G1 X133.601 Y114.406 F6000.000
G1 X133.746 Y114.732 F6000.000
G1 F540
G1 X133.291 Y114.935 E0.89750
G1 X132.768 Y115.046 E0.91244
G1 X132.232 Y115.046 E0.92738
G1 X131.709 Y114.935 E0.94231
G1 X131.220 Y114.717 E0.95725
G1 X130.787 Y114.403 E0.97219
G1 X130.429 Y114.005 E0.98713
G1 X130.161 Y113.541 E1.00207
G1 X129.996 Y113.032 E1.01700
G1 X129.940 Y112.500 E1.03194
G1 X129.996 Y111.968 E1.04688
G1 X130.161 Y111.459 E1.06182
G1 X130.429 Y110.995 E1.07675
G1 X130.787 Y110.597 E1.09169
G1 X131.220 Y110.283 E1.10663
G1 X131.709 Y110.065 E1.12157
G1 X132.232 Y109.954 E1.13651
G1 X132.768 Y109.954 E1.15144
G1 X133.291 Y110.065 E1.16638
G1 X133.780 Y110.283 E1.18132
G1 X134.213 Y110.597 E1.19626
G1 X134.571 Y110.995 E1.21119
G1 X134.839 Y111.459 E1.22613
G1 X135.004 Y111.968 E1.24107
G1 X135.060 Y112.500 E1.25601
G1 X135.004 Y113.032 E1.27095
G1 X134.839 Y113.541 E1.28589
G1 X134.571 Y114.005 E1.30082
G1 X134.213 Y114.403 E1.31576
G1 X133.798 Y114.704 E1.33007
G1 X133.891 Y115.059 F6000.000
G1 F540
G1 X133.402 Y115.276 E1.34501
G1 X132.805 Y115.403 E1.36204
G1 X132.195 Y115.403 E1.37907
G1 X131.598 Y115.276 E1.39611
G1 X131.040 Y115.028 E1.41314
G1 X130.547 Y114.669 E1.43017
G1 X130.138 Y114.216 E1.44720
G1 X129.833 Y113.687 E1.46424
G1 X129.645 Y113.107 E1.48127
G1 X129.581 Y112.500 E1.49830
G1 X129.645 Y111.893 E1.51534
G1 X129.833 Y111.313 E1.53237
G1 X130.138 Y110.784 E1.54940
G1 X130.547 Y110.331 E1.56643
G1 X131.040 Y109.972 E1.58347
G1 X131.598 Y109.724 E1.60050
G1 X132.195 Y109.597 E1.61753
G1 X132.805 Y109.597 E1.63456
G1 X133.402 Y109.724 E1.65160
G1 X133.960 Y109.972 E1.66863
G1 X134.453 Y110.331 E1.68566
G1 X134.862 Y110.784 E1.70270
G1 X135.167 Y111.313 E1.71973
G1 X135.355 Y111.893 E1.73676
G1 X135.419 Y112.500 E1.75379
G1 X135.355 Y113.107 E1.77083
G1 X135.167 Y113.687 E1.78786
G1 X134.862 Y114.216 E1.80489
G1 X134.453 Y114.669 E1.82193
G1 X133.946 Y115.034 E1.83937
G1 X134.036 Y115.385 F6000.000
G1 F540
G1 X133.513 Y115.618 E1.85536
G1 X132.843 Y115.760 E1.87449
G1 X132.157 Y115.760 E1.89361
G1 X131.487 Y115.618 E1.91274
G1 X130.861 Y115.339 E1.93187
G1 X130.306 Y114.936 E1.95099
G1 X129.848 Y114.427 E1.97012
G1 X129.505 Y113.833 E1.98925
G1 X129.293 Y113.182 E2.00838
G1 X129.222 Y112.500 E2.02750
G1 X129.293 Y111.818 E2.04663
G1 X129.505 Y111.167 E2.06576
G1 X129.848 Y110.573 E2.08489
G1 X130.306 Y110.064 E2.10401
G1 X130.861 Y109.661 E2.12314
G1 X131.487 Y109.382 E2.14227
G1 X132.157 Y109.240 E2.16140
G1 X132.843 Y109.240 E2.18052
G1 X133.513 Y109.382 E2.19965
G1 X134.139 Y109.661 E2.21878
G1 X134.694 Y110.064 E2.23791
G1 X135.152 Y110.573 E2.25704
G1 X135.495 Y111.167 E2.27616
G1 X135.707 Y111.818 E2.29529
G1 X135.778 Y112.500 E2.31442
G1 X135.707 Y113.182 E2.33355
G1 X135.495 Y113.833 E2.35268
G1 X135.152 Y114.427 E2.37180
G1 X134.694 Y114.936 E2.39093
G1 X134.091 Y115.360 E2.41149
G1 E1.91149 F2400.00000
G92 E0
G1 X170.299 Y112.500 F6000.000
G1 E0.50000 F2400.00000
G1 F540
G1 X170.347 Y112.042 E0.51284
G1 X170.489 Y111.605 E0.52569
G1 X170.719 Y111.206 E0.53853
G1 X171.027 Y110.864 E0.55137
G1 X171.399 Y110.594 E0.56421
G1 X171.820 Y110.407 E0.57706
G1 X172.325 Y110.299 E0.59147
G1 X172.733 Y110.312 E0.60286
G1 X173.180 Y110.407 E0.61562
G1 X173.601 Y110.594 E0.62847
G1 X173.973 Y110.864 E0.64131
G1 X174.281 Y111.206 E0.65415
G1 X174.511 Y111.605 E0.66699
G1 X174.653 Y112.042 E0.67984
G1 X174.701 Y112.500 E0.69268
G1 X174.654 Y112.949 E0.70528
G1 X174.511 Y113.395 E0.71835
G1 X174.281 Y113.794 E0.73121
G1 X173.973 Y114.136 E0.74405
G1 X173.601 Y114.406 E0.75689
G1 X173.180 Y114.593 E0.76973
G1 X172.730 Y114.689 E0.78258
G1 X172.270 Y114.689 E0.79542
G1 X171.820 Y114.593 E0.80826
G1 X171.399 Y114.406 E0.82110
G1 X171.027 Y114.136 E0.83395
G1 X170.719 Y113.794 E0.84679
G1 X170.489 Y113.395 E0.85963
G1 X170.347 Y112.958 E0.87248
G1 X170.305 Y112.560 E0.88364
G1 X170.299 Y112.500 F6000.000
G1 X169.944 Y112.537 F6000.000
G1 F540
G1 X169.996 Y111.968 E0.89961
G1 X170.161 Y111.459 E0.91455
G1 X170.429 Y110.995 E0.92948
G1 X170.787 Y110.597 E0.94442
G1 X171.220 Y110.283 E0.95936
G1 X171.709 Y110.065 E0.97430
G1 X172.293 Y109.941 E0.99096
G1 X172.776 Y109.956 E1.00445
G1 X173.291 Y110.065 E1.01915
G1 X173.780 Y110.283 E1.03408
G1 X174.213 Y110.597 E1.04903
G1 X174.571 Y110.995 E1.06396
G1 X174.839 Y111.459 E1.07890
G1 X175.004 Y111.968 E1.09384
G1 X175.060 Y112.500 E1.10878
G1 X175.005 Y113.023 E1.12345
G1 X174.839 Y113.540 E1.13861
G1 X174.571 Y114.005 E1.15358
G1 X174.213 Y114.403 E1.16852
G1 X173.780 Y114.717 E1.18346
G1 X173.291 Y114.935 E1.19840
G1 X172.768 Y115.046 E1.21334
G1 X172.232 Y115.046 E1.22827
G1 X171.709 Y114.935 E1.24321
G1 X171.220 Y114.717 E1.25815
G1 X170.787 Y114.403 E1.27309
G1 X170.429 Y114.005 E1.28802
G1 X170.161 Y113.541 E1.30296
G1 X169.996 Y113.032 E1.31790
G1 X169.950 Y112.597 E1.33011
G1 X169.589 Y112.575 F6000.000
G1 F540
G1 X169.581 Y112.500 E1.33221
G1 X169.645 Y111.893 E1.34924
G1 X169.833 Y111.313 E1.36628
G1 X170.138 Y110.784 E1.38331
G1 X170.547 Y110.331 E1.40034
G1 X171.040 Y109.972 E1.41737
G1 X171.598 Y109.724 E1.43441
G1 X172.261 Y109.583 E1.45331
G1 X172.819 Y109.600 E1.46890
G1 X173.402 Y109.724 E1.48554
G1 X173.960 Y109.972 E1.50257
G1 X174.453 Y110.331 E1.51961
G1 X174.862 Y110.784 E1.53664
G1 X175.167 Y111.313 E1.55367
G1 X175.355 Y111.893 E1.57071
G1 X175.419 Y112.500 E1.58774
G1 X175.356 Y113.097 E1.60449
G1 X175.168 Y113.686 E1.62175
G1 X174.862 Y114.216 E1.63883
G1 X174.453 Y114.669 E1.65587
G1 X173.960 Y115.028 E1.67290
G1 X173.402 Y115.276 E1.68993
G1 X172.805 Y115.403 E1.70697
G1 X172.195 Y115.403 E1.72400
G1 X171.598 Y115.276 E1.74103
G1 X171.040 Y115.028 E1.75806
G1 X170.547 Y114.669 E1.77509
G1 X170.138 Y114.216 E1.79213
G1 X169.833 Y113.687 E1.80916
G1 X169.645 Y113.107 E1.82619
G1 X169.595 Y112.634 E1.83946
G1 X169.234 Y112.612 F6000.000
G1 F540
G1 X169.222 Y112.500 E1.84260
G1 X169.293 Y111.818 E1.86173
G1 X169.505 Y111.167 E1.88086
G1 X169.848 Y110.573 E1.89998
G1 X170.306 Y110.064 E1.91911
G1 X170.861 Y109.661 E1.93824
G1 X171.487 Y109.382 E1.95737
G1 X172.228 Y109.225 E1.97852
G1 X172.862 Y109.244 E1.99620
G1 X173.513 Y109.382 E2.01479
G1 X174.139 Y109.661 E2.03391
G1 X174.694 Y110.064 E2.05305
G1 X175.152 Y110.573 E2.07217
G1 X175.495 Y111.167 E2.09130
G1 X175.707 Y111.818 E2.11043
G1 X175.778 Y112.500 E2.12955
G1 X175.708 Y113.171 E2.14837
G1 X175.496 Y113.831 E2.16773
G1 X175.152 Y114.427 E2.18693
G1 X174.694 Y114.936 E2.20606
G1 X174.139 Y115.339 E2.22519
G1 X173.513 Y115.618 E2.24432
G1 X172.843 Y115.760 E2.26345
G1 X172.157 Y115.760 E2.28257
G1 X171.487 Y115.618 E2.30170
G1 X170.861 Y115.339 E2.32082
G1 X170.306 Y114.936 E2.33995
G1 X169.848 Y114.427 E2.35908
G1 X169.505 Y113.833 E2.37821
G1 X169.293 Y113.182 E2.39734
G1 X169.240 Y112.672 E2.41165
G1 E1.91165 F2400.00000
G92 E0
G1 X154.701 Y112.500 F6000.000
G1 E0.50000 F2400.00000
G1 F540
G1 X154.653 Y112.958 E0.51284
G1 X154.511 Y113.395 E0.52569
G1 X154.281 Y113.794 E0.53853
G1 X153.973 Y114.136 E0.55137
G1 X153.601 Y114.406 E0.56421
G1 X153.180 Y114.593 E0.57706
G1 X152.730 Y114.689 E0.58990
G1 X152.270 Y114.689 E0.60274
G1 X151.820 Y114.593 E0.61558
G1 X151.399 Y114.406 E0.62843
G1 X151.027 Y114.136 E0.64127
G1 X150.719 Y113.794 E0.65411
G1 X150.489 Y113.395 E0.66696
G1 X150.347 Y112.958 E0.67980
G1 X150.299 Y112.500 E0.69264
G1 X150.347 Y112.042 E0.70548
G1 X150.489 Y111.605 E0.71833
G1 X150.719 Y111.206 E0.73117
G1 X151.027 Y110.864 E0.74401
G1 X151.399 Y110.594 E0.75686
G1 X151.820 Y110.407 E0.76970
G1 X152.270 Y110.311 E0.78254
G1 X152.730 Y110.311 E0.79538
G1 X153.180 Y110.407 E0.80823
G1 X153.601 Y110.594 E0.82107
G1 X153.973 Y110.864 E0.83391
G1 X154.281 Y111.206 E0.84676
G1 X154.511 Y111.605 E0.85960
G1 X154.653 Y112.042 E0.87244
G1 X154.695 Y112.440 E0.88361
G1 X154.701 Y112.500 F6000.000
G1 X155.056 Y112.463 F6000.000
G1 F540
G1 X155.004 Y113.032 E0.89957
G1 X154.839 Y113.541 E0.91451
G1 X154.571 Y114.005 E0.92945
