; generated by Slic3r 1.3.0 on 2020-04-12 at 19:16:15

; external perimeters extrusion width = 0.44mm (2.38mm^3/s)
; perimeters extrusion width = 0.56mm (3.10mm^3/s)
; infill extrusion width = 0.50mm (4.57mm^3/s)
; solid infill extrusion width = 0.56mm (5.17mm^3/s)
; top infill extrusion width = 0.56mm (5.17mm^3/s)

M107
; -- TypeA START GCODE --
G21        ;metric values
G90        ;absolute positioning
G28     ;move to endstops
G29		;allows for auto-levelling
G1 Z15.0 F12000 ;move the platform down 15mm
G1 X150 Y5 F12000 ;center
M140 S90;Prep Heat Bed
M109 S240 ;Heat hotend to temp
M190 S90 ;Heat Bed to temp
G1 X150 Y5 Z0.3 ;move the platform to purge extrusion
G92 E0 ;zero the extruded length
G1 F200 X250 E30 ;extrude 30mm of feed stock
G92 E0 ;zero the extruded length again
G1 X150 Y150  Z25 F12000 ;recenter and begin
G1 F12000

; Filament gcode

G21 ; set units to millimeters
G90 ; use absolute coordinates
M82 ; use absolute distances for extrusion
G92 E0
G1 Z0.200 F6000.000
; LAYER: 0 
; LAYERZ: 0.2
G1 E-0.50000 F2400.00000
G92 E0
G1 X103.046 Y103.702 F6000.000
G1 E0.50000 F2400.00000
G1 F900
G1 X105.495 Y102.457 E0.50000
G1 X199.503 Y102.457 E0.50000
G1 X201.298 Y103.046 E0.50000
G1 X202.543 Y105.495 E0.50000
G1 X202.543 Y121.948 E0.50000
G1 X202.350 Y123.013 E0.50000
G1 X173.269 Y200.572 E0.50000
G1 X172.104 Y202.035 E0.50000
G1 X170.424 Y202.543 E0.50000
G1 X134.576 Y202.543 E0.50000
G1 X132.796 Y201.966 E0.50000
G1 X131.734 Y200.577 E0.50000
G1 X102.650 Y123.013 E0.50000
G1 X102.457 Y121.948 E0.50000
G1 X102.457 Y105.497 E0.50000
G1 X103.022 Y103.756 E0.50000
G1 E-0.00000 F2400.00000
G92 E0
G1 X175.169 Y194.812 F6000.000
G1 E0.50000 F2400.00000
G1 F540
G1 X173.054 Y200.453 E0.66814
G1 X171.957 Y201.830 E0.71726
G1 X170.391 Y202.300 E0.76288
G1 X134.611 Y202.300 E1.76152
G1 X132.937 Y201.756 E1.81063
G1 X131.947 Y200.456 E1.85625
G1 X102.885 Y122.946 E4.16660
G1 X102.700 Y121.928 E4.19547
G1 X102.700 Y105.532 E4.65309
G1 X103.238 Y103.877 E4.70164
G1 X105.548 Y102.700 E4.77402
G1 X199.468 Y102.700 E7.39531
G1 X201.123 Y103.238 E7.44387
G1 X202.300 Y105.548 E7.51624
G1 X202.300 Y121.928 E7.97340
G1 X202.115 Y122.946 E8.00227
G1 X175.190 Y194.756 E10.14274
G1 X174.774 Y194.878 F6000.000
G1 X174.835 Y194.687 F6000.000
G1 F540
G1 X172.739 Y200.275 E10.30931
G1 X171.747 Y201.520 E10.35373
G1 X170.339 Y201.943 E10.39477
G1 X134.667 Y201.943 E11.39036
G1 X133.154 Y201.451 E11.43478
G1 X132.263 Y200.281 E11.47582
G1 X103.230 Y122.851 E13.78381
G1 X103.057 Y121.896 E13.81089
G1 X103.057 Y105.588 E14.26603
G1 X103.531 Y104.128 E14.30888
G1 X105.634 Y103.057 E14.37473
G1 X199.412 Y103.057 E16.99205
G1 X200.872 Y103.531 E17.03490
G1 X201.943 Y105.634 E17.10075
G1 X201.943 Y121.896 E17.55463
G1 X201.770 Y122.851 E17.58171
G1 X174.856 Y194.631 E19.72128
G1 X174.500 Y194.562 F6000.000
G1 F540
G1 X172.425 Y200.097 E19.88626
G1 X171.538 Y201.210 E19.92599
G1 X170.287 Y201.586 E19.96245
G1 X134.724 Y201.586 E20.95500
G1 X133.370 Y201.146 E20.99473
G1 X132.579 Y200.107 E21.03118
G1 X103.576 Y122.755 E23.33681
G1 X103.414 Y121.864 E23.36210
G1 X103.414 Y105.645 E23.81477
G1 X103.825 Y104.379 E23.85191
G1 X105.719 Y103.414 E23.91124
G1 X199.355 Y103.414 E26.52459
G1 X200.621 Y103.825 E26.56173
G1 X201.586 Y105.719 E26.62106
G1 X201.586 Y121.864 E27.07165
G1 X201.424 Y122.755 E27.09694
G1 X174.521 Y194.505 E29.23561
G1 X174.166 Y194.436 F6000.000
G1 F540
G1 X172.110 Y199.918 E29.39902
G1 X171.328 Y200.900 E29.43405
G1 X170.234 Y201.229 E29.46593
G1 X134.780 Y201.229 E30.45543
G1 X133.587 Y200.841 E30.49047
G1 X132.895 Y199.932 E30.52235
G1 X103.921 Y122.660 E32.82561
G1 X103.771 Y121.832 E32.84911
G1 X103.771 Y105.701 E33.29930
G1 X104.119 Y104.630 E33.33073
G1 X105.805 Y103.771 E33.38354
G1 X199.299 Y103.771 E35.99293
G1 X200.370 Y104.119 E36.02436
G1 X201.229 Y105.805 E36.07717
G1 X201.229 Y121.832 E36.52447
G1 X201.079 Y122.660 E36.54796
G1 X174.187 Y194.380 E38.68574
G1 X173.831 Y194.311 F6000.000
G1 F540
G1 X171.796 Y199.740 E38.84757
G1 X171.118 Y200.590 E38.87791
G1 X170.182 Y200.872 E38.90521
G1 X134.837 Y200.872 E39.89167
G1 X133.803 Y200.536 E39.92201
G1 X133.211 Y199.757 E39.94931
G1 X104.267 Y122.565 E42.25021
G1 X104.128 Y121.800 E42.27191
G1 X104.128 Y105.758 E42.71963
G1 X104.413 Y104.881 E42.74536
G1 X105.891 Y104.128 E42.79165
G1 X199.242 Y104.128 E45.39706
G1 X200.119 Y104.413 E45.42279
G1 X200.872 Y105.891 E45.46908
G1 X200.872 Y121.800 E45.91309
G1 X200.733 Y122.565 E45.93479
G1 X173.853 Y194.255 E48.07167
G1 X173.497 Y194.186 F6000.000
G1 F540
G1 X171.481 Y199.562 E48.23192
G1 X170.909 Y200.280 E48.25757
G1 X170.129 Y200.515 E48.28029
G1 X134.894 Y200.515 E49.26370
G1 X134.020 Y200.231 E49.28935
G1 X133.527 Y199.583 E49.31207
G1 X104.613 Y122.469 E51.61061
G1 X104.485 Y121.767 E51.63052
G1 X104.485 Y105.814 E52.07576
G1 X104.707 Y105.132 E52.09578
G1 X105.977 Y104.485 E52.13555
G1 X199.186 Y104.485 E54.73699
G1 X199.868 Y104.707 E54.75701
G1 X200.515 Y105.977 E54.79678
G1 X200.515 Y121.767 E55.23750
G1 X200.387 Y122.469 E55.25741
G1 X173.518 Y194.129 E57.39340
G1 E56.89340 F2400.00000
G92 E0
G1 X191.909 Y114.972 F6000.000
G1 E0.50000 F2400.00000
G1 F540
G1 X191.170 Y114.666 E0.52232
G1 X190.334 Y113.830 E0.55531
G1 X190.028 Y113.091 E0.57762
G1 X190.028 Y111.909 E0.61062
G1 X190.334 Y111.170 E0.63293
G1 X191.170 Y110.334 E0.66593
G1 X191.895 Y110.034 E0.68782
G1 X193.091 Y110.028 E0.72119
G1 X193.830 Y110.334 E0.74352
G1 X194.666 Y111.170 E0.77651
G1 X194.972 Y111.909 E0.79883
G1 X194.972 Y113.091 E0.83182
G1 X194.666 Y113.830 E0.85413
G1 X193.830 Y114.666 E0.88713
G1 X193.091 Y114.972 E0.90944
G1 X191.969 Y114.972 E0.94076
G1 X191.909 Y114.972 F6000.000
G1 X191.772 Y115.302 F6000.000
G1 F540
G1 X190.968 Y114.968 E0.96506
G1 X190.032 Y114.032 E1.00202
G1 X189.671 Y113.162 E1.02830
G1 X189.671 Y111.838 E1.06526
G1 X190.032 Y110.968 E1.09154
G1 X190.968 Y110.032 E1.12850
G1 X191.823 Y109.677 E1.15433
G1 X193.161 Y109.671 E1.19166
G1 X194.032 Y110.032 E1.21798
G1 X194.968 Y110.968 E1.25494
G1 X195.329 Y111.838 E1.28122
G1 X195.329 Y113.162 E1.31818
G1 X194.968 Y114.032 E1.34446
G1 X194.032 Y114.968 E1.38142
G1 X193.162 Y115.329 E1.40769
G1 X191.828 Y115.324 E1.44494
G1 X191.636 Y115.631 F6000.000
G1 F540
G1 X190.766 Y115.271 E1.47122
G1 X189.729 Y114.234 E1.51214
G1 X189.314 Y113.233 E1.54238
G1 X189.314 Y111.767 E1.58331
G1 X189.729 Y110.766 E1.61355
G1 X190.766 Y109.729 E1.65448
G1 X191.751 Y109.321 E1.68425
G1 X193.231 Y109.313 E1.72555
G1 X194.234 Y109.729 E1.75586
G1 X195.271 Y110.766 E1.79678
G1 X195.686 Y111.767 E1.82702
G1 X195.686 Y113.233 E1.86795
G1 X195.271 Y114.234 E1.89819
G1 X194.234 Y115.271 E1.93912
G1 X193.233 Y115.686 E1.96936
G1 X191.767 Y115.686 E2.01028
G1 X191.691 Y115.654 E2.01257
G1 X191.499 Y115.961 F6000.000
G1 F540
G1 X190.563 Y115.574 E2.04083
G1 X189.426 Y114.436 E2.08572
G1 X188.957 Y113.304 E2.11993
G1 X188.957 Y111.696 E2.16482
G1 X189.426 Y110.563 E2.19903
G1 X190.563 Y109.426 E2.24392
G1 X191.680 Y108.964 E2.27763
G1 X193.301 Y108.956 E2.32289
G1 X194.436 Y109.426 E2.35719
G1 X195.574 Y110.563 E2.40208
G1 X196.043 Y111.696 E2.43629
G1 X196.043 Y113.304 E2.48118
G1 X195.574 Y114.436 E2.51538
G1 X194.436 Y115.574 E2.56027
G1 X193.304 Y116.043 E2.59448
G1 X191.696 Y116.043 E2.63937
G1 X191.554 Y115.984 E2.64364
G1 X191.362 Y116.291 F6000.000
G1 F540
G1 X190.361 Y115.877 E2.67389
G1 X189.123 Y114.639 E2.72274
G1 X188.600 Y113.375 E2.76091
G1 X188.600 Y111.625 E2.80976
G1 X189.124 Y110.361 E2.84794
G1 X190.361 Y109.123 E2.89679
G1 X191.608 Y108.607 E2.93445
G1 X193.371 Y108.598 E2.98367
G1 X194.639 Y109.123 E3.02196
G1 X195.877 Y110.361 E3.07081
G1 X196.400 Y111.625 E3.10899
G1 X196.400 Y113.375 E3.15784
G1 X195.877 Y114.639 E3.19601
G1 X194.639 Y115.877 E3.24487
G1 X193.375 Y116.400 E3.28304
G1 X191.625 Y116.400 E3.33189
G1 X191.418 Y116.314 E3.33814
G1 X191.226 Y116.621 F6000.000
G1 F540
G1 X190.159 Y116.179 E3.37037
G1 X188.821 Y114.841 E3.42319
G1 X188.243 Y113.446 E3.46533
G1 X188.243 Y111.554 E3.51815
G1 X188.821 Y110.159 E3.56029
G1 X190.159 Y108.821 E3.61310
G1 X191.536 Y108.250 E3.65470
G1 X193.442 Y108.241 E3.70789
G1 X194.841 Y108.821 E3.75016
G1 X196.179 Y110.159 E3.80298
G1 X196.757 Y111.554 E3.84512
G1 X196.757 Y113.446 E3.89794
G1 X196.179 Y114.841 E3.94008
G1 X194.841 Y116.179 E3.99290
G1 X193.446 Y116.757 E4.03503
G1 X191.554 Y116.757 E4.08785
G1 X191.281 Y116.644 E4.09609
G1 E3.59609 F2400.00000
G92 E0
G1 X174.972 Y113.091 F6000.000
G1 E0.50000 F2400.00000
G1 F540
G1 X174.666 Y113.830 E0.52231
G1 X173.830 Y114.666 E0.55531
G1 X173.091 Y114.972 E0.57762
G1 X171.909 Y114.972 E0.61062
G1 X171.170 Y114.666 E0.63293
G1 X170.334 Y113.830 E0.66593
G1 X170.028 Y113.091 E0.68824
G1 X170.028 Y111.909 E0.72123
G1 X170.334 Y111.170 E0.74355
G1 X171.170 Y110.334 E0.77654
G1 X171.895 Y110.034 E0.79844
G1 X173.091 Y110.028 E0.83181
G1 X173.830 Y110.334 E0.85413
G1 X174.666 Y111.170 E0.88713
G1 X174.972 Y111.909 E0.90944
G1 X174.972 Y113.031 E0.94076
G1 X174.972 Y113.091 F6000.000
G1 X175.329 Y113.091 F6000.000
G1 F540
G1 X175.329 Y113.162 E0.94274
G1 X174.968 Y114.032 E0.96902
G1 X174.032 Y114.968 E1.00598
G1 X173.162 Y115.329 E1.03226
G1 X171.838 Y115.329 E1.06922
G1 X170.968 Y114.968 E1.09550
G1 X170.032 Y114.032 E1.13246
G1 X169.671 Y113.162 E1.15873
G1 X169.671 Y111.838 E1.19569
G1 X170.032 Y110.968 E1.22198
G1 X170.968 Y110.032 E1.25893
G1 X171.823 Y109.677 E1.28477
G1 X173.161 Y109.671 E1.32210
G1 X174.032 Y110.032 E1.34842
G1 X174.968 Y110.968 E1.38538
G1 X175.329 Y111.838 E1.41166
G1 X175.329 Y113.031 E1.44496
G1 X175.686 Y113.091 F6000.000
G1 F540
G1 X175.686 Y113.233 E1.44892
G1 X175.271 Y114.234 E1.47917
G1 X174.234 Y115.271 E1.52009
G1 X173.233 Y115.686 E1.55033
G1 X171.767 Y115.686 E1.59126
G1 X170.766 Y115.271 E1.62150
G1 X169.729 Y114.234 E1.66243
G1 X169.314 Y113.233 E1.69267
G1 X169.314 Y111.767 E1.73359
G1 X169.729 Y110.766 E1.76384
G1 X170.766 Y109.729 E1.80476
G1 X171.751 Y109.321 E1.83454
G1 X173.231 Y109.313 E1.87583
G1 X174.234 Y109.729 E1.90614
G1 X175.271 Y110.766 E1.94707
G1 X175.686 Y111.767 E1.97731
G1 X175.686 Y113.031 E2.01259
G1 X176.043 Y113.091 F6000.000
G1 F540
G1 X176.043 Y113.304 E2.01854
G1 X175.574 Y114.436 E2.05275
G1 X174.436 Y115.574 E2.09764
G1 X173.304 Y116.043 E2.13184
G1 X171.696 Y116.043 E2.17673
G1 X170.563 Y115.574 E2.21094
G1 X169.426 Y114.436 E2.25583
G1 X168.957 Y113.304 E2.29004
G1 X168.957 Y111.696 E2.33493
G1 X169.426 Y110.563 E2.36914
G1 X170.563 Y109.426 E2.41403
G1 X171.680 Y108.964 E2.44774
G1 X173.301 Y108.956 E2.49300
G1 X174.436 Y109.426 E2.52730
G1 X175.574 Y110.563 E2.57219
G1 X176.043 Y111.696 E2.60640
G1 X176.043 Y113.031 E2.64366
G1 X176.400 Y113.091 F6000.000
G1 F540
G1 X176.400 Y113.375 E2.65159
G1 X175.877 Y114.639 E2.68976
G1 X174.639 Y115.877 E2.73862
G1 X173.375 Y116.400 E2.77679
G1 X171.625 Y116.400 E2.82564
G1 X170.361 Y115.877 E2.86382
G1 X169.123 Y114.639 E2.91267
G1 X168.600 Y113.375 E2.95084
G1 X168.600 Y111.625 E2.99970
G1 X169.124 Y110.361 E3.03787
G1 X170.361 Y109.123 E3.08672
G1 X171.608 Y108.607 E3.12438
G1 X173.371 Y108.598 E3.17360
G1 X174.639 Y109.123 E3.21189
G1 X175.877 Y110.361 E3.26075
G1 X176.400 Y111.625 E3.29892
G1 X176.400 Y113.031 E3.33817
G1 X176.757 Y113.091 F6000.000
G1 F540
G1 X176.757 Y113.446 E3.34808
G1 X176.179 Y114.841 E3.39022
G1 X174.841 Y116.179 E3.44304
G1 X173.446 Y116.757 E3.48517
G1 X171.554 Y116.757 E3.53799
G1 X170.159 Y116.179 E3.58013
G1 X168.821 Y114.841 E3.63295
G1 X168.243 Y113.446 E3.67508
G1 X168.243 Y111.554 E3.72790
G1 X168.821 Y110.159 E3.77004
G1 X170.159 Y108.821 E3.82286
G1 X171.536 Y108.250 E3.86445
G1 X173.442 Y108.241 E3.91764
G1 X174.841 Y108.821 E3.95992
G1 X176.179 Y110.159 E4.01274
G1 X176.757 Y111.554 E4.05488
G1 X176.757 Y113.031 E4.09611
G1 E3.59611 F2400.00000
G92 E0
G1 X114.972 Y113.091 F6000.000
G1 E0.50000 F2400.00000
G1 F540
G1 X114.666 Y113.830 E0.52231
G1 X113.830 Y114.666 E0.55531
G1 X113.091 Y114.972 E0.57762
G1 X111.909 Y114.972 E0.61062
G1 X111.170 Y114.666 E0.63293
G1 X110.334 Y113.830 E0.66593
G1 X110.028 Y113.091 E0.68824
G1 X110.028 Y111.909 E0.72123
G1 X110.334 Y111.170 E0.74355
G1 X111.170 Y110.334 E0.77654
G1 X111.895 Y110.034 E0.79844
G1 X113.091 Y110.028 E0.83181
G1 X113.830 Y110.334 E0.85413
G1 X114.666 Y111.170 E0.88713
G1 X114.972 Y111.909 E0.90944
G1 X114.972 Y113.031 E0.94076
G1 X114.972 Y113.091 F6000.000
G1 X115.301 Y113.228 F6000.000
G1 F540
G1 X114.968 Y114.032 E0.96506
G1 X114.032 Y114.968 E1.00202
G1 X113.162 Y115.329 E1.02830
G1 X111.838 Y115.329 E1.06526
G1 X110.968 Y114.968 E1.09153
G1 X110.032 Y114.032 E1.12849
G1 X109.671 Y113.162 E1.15477
G1 X109.671 Y111.838 E1.19173
G1 X110.032 Y110.968 E1.21801
G1 X110.968 Y110.032 E1.25497
G1 X111.823 Y109.677 E1.28081
G1 X113.161 Y109.671 E1.31814
G1 X114.032 Y110.032 E1.34446
G1 X114.968 Y110.968 E1.38142
G1 X115.329 Y111.838 E1.40769
G1 X115.324 Y113.172 E1.44494
G1 X115.631 Y113.364 F6000.000
G1 F540
G1 X115.271 Y114.234 E1.47122
G1 X114.234 Y115.271 E1.51214
G1 X113.233 Y115.686 E1.54238
G1 X111.767 Y115.686 E1.58331
G1 X110.766 Y115.271 E1.61355
G1 X109.729 Y114.234 E1.65448
G1 X109.314 Y113.233 E1.68472
G1 X109.314 Y111.767 E1.72564
G1 X109.729 Y110.766 E1.75588
G1 X110.766 Y109.729 E1.79681
G1 X111.751 Y109.321 E1.82659
G1 X113.231 Y109.313 E1.86788
G1 X114.234 Y109.729 E1.89819
G1 X115.271 Y110.766 E1.93911
G1 X115.686 Y111.767 E1.96936
G1 X115.686 Y113.233 E2.01028
G1 X115.654 Y113.309 E2.01257
G1 X115.961 Y113.501 F6000.000
G1 F540
G1 X115.574 Y114.437 E2.04083
G1 X114.437 Y115.574 E2.08572
G1 X113.304 Y116.043 E2.11993
G1 X111.696 Y116.043 E2.16482
G1 X110.563 Y115.574 E2.19903
G1 X109.426 Y114.436 E2.24392
G1 X108.957 Y113.304 E2.27812
G1 X108.957 Y111.696 E2.32301
G1 X109.426 Y110.563 E2.35722
G1 X110.563 Y109.426 E2.40211
G1 X111.680 Y108.964 E2.43582
G1 X113.301 Y108.956 E2.48108
G1 X114.436 Y109.426 E2.51538
G1 X115.574 Y110.563 E2.56027
G1 X116.043 Y111.696 E2.59448
G1 X116.043 Y113.304 E2.63937
G1 X115.984 Y113.446 E2.64364
G1 X116.291 Y113.638 F6000.000
G1 F540
G1 X115.877 Y114.639 E2.67388
G1 X114.639 Y115.877 E2.72274
G1 X113.375 Y116.400 E2.76091
G1 X111.625 Y116.400 E2.80976
G1 X110.361 Y115.877 E2.84794
G1 X109.123 Y114.639 E2.89679
G1 X108.600 Y113.375 E2.93496
G1 X108.600 Y111.625 E2.98382
G1 X109.123 Y110.361 E3.02199
G1 X110.361 Y109.123 E3.07084
G1 X111.608 Y108.607 E3.10850
G1 X113.371 Y108.598 E3.15772
G1 X114.639 Y109.123 E3.19601
G1 X115.877 Y110.361 E3.24487
G1 X116.400 Y111.625 E3.28304
G1 X116.400 Y113.375 E3.33189
G1 X116.314 Y113.582 E3.33815
G1 X116.621 Y113.774 F6000.000
G1 F540
G1 X116.179 Y114.841 E3.37037
G1 X114.841 Y116.179 E3.42319
G1 X113.446 Y116.757 E3.46533
G1 X111.554 Y116.757 E3.51815
G1 X110.159 Y116.179 E3.56028
G1 X108.821 Y114.841 E3.61310
G1 X108.243 Y113.446 E3.65524
G1 X108.243 Y111.554 E3.70806
G1 X108.821 Y110.159 E3.75019
G1 X110.159 Y108.821 E3.80301
G1 X111.536 Y108.250 E3.84461
G1 X113.442 Y108.241 E3.89780
G1 X114.841 Y108.821 E3.94008
G1 X116.179 Y110.159 E3.99289
G1 X116.757 Y111.554 E4.03503
G1 X116.757 Y113.446 E4.08785
G1 X116.644 Y113.719 E4.09609
G1 E3.59609 F2400.00000
G92 E0
G1 X130.028 Y113.091 F6000.000
G1 E0.50000 F2400.00000
G1 F540
G1 X130.028 Y111.909 E0.53299
G1 X130.334 Y111.170 E0.55531
G1 X131.170 Y110.334 E0.58831
G1 X131.895 Y110.034 E0.61020
G1 X133.091 Y110.028 E0.64357
G1 X133.830 Y110.334 E0.66590
G1 X134.666 Y111.170 E0.69889
G1 X134.972 Y111.909 E0.72120
G1 X134.972 Y113.091 E0.75420
G1 X134.666 Y113.830 E0.77651
G1 X133.830 Y114.666 E0.80951
G1 X133.091 Y114.972 E0.83182
G1 X131.909 Y114.972 E0.86481
G1 X131.170 Y114.666 E0.88713
G1 X130.334 Y113.830 E0.92012
G1 X130.051 Y113.147 E0.94076
G1 X130.028 Y113.091 F6000.000
G1 X129.671 Y113.091 F6000.000
G1 F540
G1 X129.671 Y111.838 E0.97574
G1 X130.032 Y110.968 E1.00202
G1 X130.968 Y110.032 E1.03898
G1 X131.823 Y109.677 E1.06482
G1 X133.161 Y109.671 E1.10215
G1 X134.032 Y110.032 E1.12846
G1 X134.968 Y110.968 E1.16542
G1 X135.329 Y111.838 E1.19170
G1 X135.329 Y113.162 E1.22866
G1 X134.968 Y114.032 E1.25494
