; generated by Slic3r 1.3.0 on 2020-03-14 at 18:09:36

; external perimeters extrusion width = 0.44mm (2.38mm^3/s)
; perimeters extrusion width = 0.56mm (3.10mm^3/s)
; infill extrusion width = 0.50mm (4.57mm^3/s)
; solid infill extrusion width = 0.56mm (5.17mm^3/s)
; top infill extrusion width = 0.56mm (5.17mm^3/s)

M107
; -- TypeA START GCODE --
G21        ;metric values
G90        ;absolute positioning
G28     ;move to endstops
G29		;allows for auto-levelling
G1 Z15.0 F12000 ;move the platform down 15mm
G1 X150 Y5 F12000 ;center
M140 S50;Prep Heat Bed
M109 S210 ;Heat hotend to temp
M190 S50 ;Heat Bed to temp
G1 X150 Y5 Z0.3 ;move the platform to purge extrusion
G92 E0 ;zero the extruded length
G1 F200 X250 E30 ;extrude 30mm of feed stock
G92 E0 ;zero the extruded length again
G1 X150 Y150  Z25 F12000 ;recenter and begin
G1 F12000

; Filament gcode

G21 ; set units to millimeters
G90 ; use absolute coordinates
M82 ; use absolute distances for extrusion
G92 E0
G1 Z0.200 F6000.000
; LAYER: 0 
; LAYERZ: 0.2
G1 E-0.50000 F2400.00000
G92 E0
G1 X103.046 Y103.702 F6000.000
G1 E0.50000 F2400.00000
G1 F900
G1 X105.495 Y102.457 E0.50000
G1 X199.503 Y102.457 E0.50000
G1 X201.298 Y103.046 E0.50000
G1 X202.543 Y105.495 E0.50000
G1 X202.543 Y121.948 E0.50000
G1 X202.350 Y123.013 E0.50000
G1 X173.269 Y200.572 E0.50000
G1 X172.104 Y202.035 E0.50000
G1 X170.424 Y202.543 E0.50000
G1 X134.576 Y202.543 E0.50000
G1 X132.796 Y201.966 E0.50000
G1 X131.734 Y200.577 E0.50000
G1 X102.650 Y123.013 E0.50000
G1 X102.457 Y121.948 E0.50000
G1 X102.457 Y105.497 E0.50000
G1 X103.022 Y103.756 E0.50000
G1 E-0.00000 F2400.00000
G92 E0
G1 X175.169 Y194.812 F6000.000
G1 E0.50000 F2400.00000
G1 F540
G1 X173.054 Y200.453 E0.66814
G1 X171.957 Y201.830 E0.71726
G1 X170.391 Y202.300 E0.76288
G1 X134.611 Y202.300 E1.76152
G1 X132.937 Y201.756 E1.81063
G1 X131.947 Y200.456 E1.85625
G1 X102.885 Y122.946 E4.16660
G1 X102.700 Y121.928 E4.19547
G1 X102.700 Y105.532 E4.65309
G1 X103.238 Y103.877 E4.70164
G1 X105.548 Y102.700 E4.77402
G1 X199.468 Y102.700 E7.39531
G1 X201.123 Y103.238 E7.44387
G1 X202.300 Y105.548 E7.51624
G1 X202.300 Y121.928 E7.97340
G1 X202.115 Y122.946 E8.00227
G1 X175.190 Y194.756 E10.14274
G1 X174.774 Y194.878 F6000.000
G1 X174.835 Y194.687 F6000.000
G1 F540
G1 X172.739 Y200.275 E10.30931
G1 X171.747 Y201.520 E10.35373
G1 X170.339 Y201.943 E10.39477
G1 X134.667 Y201.943 E11.39036
G1 X133.154 Y201.451 E11.43478
G1 X132.263 Y200.281 E11.47582
G1 X103.230 Y122.851 E13.78381
G1 X103.057 Y121.896 E13.81089
G1 X103.057 Y105.588 E14.26603
G1 X103.531 Y104.128 E14.30888
G1 X105.634 Y103.057 E14.37473
G1 X199.412 Y103.057 E16.99205
G1 X200.872 Y103.531 E17.03490
G1 X201.943 Y105.634 E17.10075
G1 X201.943 Y121.896 E17.55463
G1 X201.770 Y122.851 E17.58171
G1 X174.856 Y194.631 E19.72128
G1 X174.500 Y194.562 F6000.000
G1 F540
G1 X172.425 Y200.097 E19.88626
G1 X171.538 Y201.210 E19.92599
G1 X170.287 Y201.586 E19.96245
G1 X134.724 Y201.586 E20.95500
G1 X133.370 Y201.146 E20.99473
G1 X132.579 Y200.107 E21.03118
G1 X103.576 Y122.755 E23.33681
G1 X103.414 Y121.864 E23.36210
G1 X103.414 Y105.645 E23.81477
G1 X103.825 Y104.379 E23.85191
G1 X105.719 Y103.414 E23.91124
G1 X199.355 Y103.414 E26.52459
G1 X200.621 Y103.825 E26.56173
G1 X201.586 Y105.719 E26.62106
G1 X201.586 Y121.864 E27.07165
G1 X201.424 Y122.755 E27.09694
G1 X174.521 Y194.505 E29.23561
G1 X174.166 Y194.436 F6000.000
G1 F540
G1 X172.110 Y199.918 E29.39902
G1 X171.328 Y200.900 E29.43405
G1 X170.234 Y201.229 E29.46593
G1 X134.780 Y201.229 E30.45543
G1 X133.587 Y200.841 E30.49047
G1 X132.895 Y199.932 E30.52235
G1 X103.921 Y122.660 E32.82561
G1 X103.771 Y121.832 E32.84911
G1 X103.771 Y105.701 E33.29930
G1 X104.119 Y104.630 E33.33073
G1 X105.805 Y103.771 E33.38354
G1 X199.299 Y103.771 E35.99293
G1 X200.370 Y104.119 E36.02436
G1 X201.229 Y105.805 E36.07717
G1 X201.229 Y121.832 E36.52447
G1 X201.079 Y122.660 E36.54796
G1 X174.187 Y194.380 E38.68574
G1 E38.18574 F2400.00000
G92 E0
G1 X191.577 Y115.164 F6000.000
G1 E0.50000 F2400.00000
G1 F540
G1 X190.654 Y114.632 E0.52972
G1 X190.080 Y113.947 E0.55466
G1 X189.716 Y112.947 E0.58437
G1 X189.716 Y112.053 E0.60932
G1 X190.080 Y111.053 E0.63903
G1 X190.654 Y110.368 E0.66398
G1 X191.577 Y109.836 E0.69369
G1 X192.440 Y109.684 E0.71816
G1 X193.505 Y109.865 E0.74830
G1 X194.279 Y110.312 E0.77326
G1 X194.963 Y111.128 E0.80298
G1 X195.269 Y111.968 E0.82792
G1 X195.269 Y113.032 E0.85764
G1 X194.963 Y113.872 E0.88258
G1 X194.279 Y114.688 E0.91229
G1 X193.505 Y115.135 E0.93724
G1 X192.457 Y115.319 E0.96695
G1 X191.636 Y115.175 E0.99022
G1 X191.577 Y115.164 F6000.000
G1 X191.515 Y115.516 F6000.000
G1 F540
G1 X191.453 Y115.505 E0.99197
G1 X190.421 Y114.910 E1.02520
G1 X189.766 Y114.129 E1.05366
G1 X189.359 Y113.010 E1.08689
G1 X189.359 Y111.990 E1.11535
G1 X189.766 Y110.871 E1.14858
G1 X190.421 Y110.090 E1.17704
G1 X191.453 Y109.495 E1.21027
G1 X192.439 Y109.321 E1.23822
G1 X193.628 Y109.524 E1.27188
G1 X194.512 Y110.035 E1.30038
G1 X195.277 Y110.947 E1.33361
G1 X195.626 Y111.905 E1.36207
G1 X195.626 Y113.095 E1.39530
G1 X195.277 Y114.053 E1.42376
G1 X194.512 Y114.965 E1.45698
G1 X193.629 Y115.475 E1.48544
G1 X192.457 Y115.682 E1.51867
G1 X191.574 Y115.526 E1.54369
G1 X191.453 Y115.868 F6000.000
G1 F540
G1 X191.329 Y115.846 E1.54721
G1 X190.188 Y115.187 E1.58395
G1 X189.452 Y114.310 E1.61592
G1 X189.002 Y113.073 E1.65267
G1 X189.002 Y111.927 E1.68464
G1 X189.452 Y110.690 E1.72139
G1 X190.188 Y109.813 E1.75336
G1 X191.329 Y109.154 E1.79010
G1 X192.438 Y108.959 E1.82154
G1 X193.751 Y109.183 E1.85871
G1 X194.745 Y109.757 E1.89076
G1 X195.591 Y110.765 E1.92750
G1 X195.983 Y111.842 E1.95948
G1 X195.983 Y113.158 E1.99622
G1 X195.591 Y114.235 E2.02819
G1 X194.745 Y115.243 E2.06494
G1 X193.753 Y115.816 E2.09691
G1 X192.457 Y116.045 E2.13365
G1 X191.512 Y115.878 E2.16043
G1 X191.391 Y116.219 F6000.000
G1 F540
G1 X191.205 Y116.186 E2.16570
G1 X189.955 Y115.465 E2.20596
G1 X189.138 Y114.491 E2.24145
G1 X188.645 Y113.136 E2.28171
G1 X188.645 Y111.864 E2.31720
G1 X189.138 Y110.509 E2.35746
G1 X189.955 Y109.535 E2.39294
G1 X191.205 Y108.814 E2.43320
G1 X192.437 Y108.596 E2.46812
G1 X193.874 Y108.841 E2.50881
G1 X194.978 Y109.479 E2.54440
G1 X195.905 Y110.584 E2.58466
G1 X196.340 Y111.779 E2.62015
G1 X196.340 Y113.221 E2.66041
G1 X195.905 Y114.416 E2.69590
G1 X194.978 Y115.521 E2.73615
G1 X193.877 Y116.157 E2.77164
G1 X192.457 Y116.407 E2.81190
G1 X191.450 Y116.230 E2.84043
G1 E2.34043 F2400.00000
G92 E0
G1 X175.269 Y113.032 F6000.000
G1 E0.50000 F2400.00000
G1 F540
G1 X174.963 Y113.872 E0.52494
G1 X174.279 Y114.688 E0.55466
G1 X173.505 Y115.135 E0.57960
G1 X172.457 Y115.319 E0.60931
G1 X171.577 Y115.164 E0.63425
G1 X170.654 Y114.632 E0.66397
G1 X170.080 Y113.947 E0.68891
G1 X169.716 Y112.947 E0.71863
G1 X169.716 Y112.053 E0.74357
G1 X170.080 Y111.053 E0.77329
G1 X170.654 Y110.368 E0.79823
G1 X171.577 Y109.836 E0.82794
G1 X172.440 Y109.684 E0.85241
G1 X173.505 Y109.865 E0.88256
G1 X174.279 Y110.312 E0.90752
G1 X174.963 Y111.128 E0.93723
G1 X175.269 Y111.968 E0.96217
G1 X175.269 Y112.972 E0.99022
G1 X175.269 Y113.032 F6000.000
G1 X175.626 Y113.032 F6000.000
G1 F540
G1 X175.626 Y113.095 E0.99197
G1 X175.277 Y114.053 E1.02043
G1 X174.512 Y114.965 E1.05366
G1 X173.629 Y115.475 E1.08212
G1 X172.457 Y115.682 E1.11534
G1 X171.453 Y115.505 E1.14380
G1 X170.421 Y114.910 E1.17703
G1 X169.766 Y114.129 E1.20548
G1 X169.359 Y113.010 E1.23872
G1 X169.359 Y111.990 E1.26717
G1 X169.766 Y110.871 E1.30040
G1 X170.421 Y110.090 E1.32886
G1 X171.453 Y109.495 E1.36209
G1 X172.439 Y109.321 E1.39004
G1 X173.628 Y109.524 E1.42370
G1 X174.512 Y110.035 E1.45221
G1 X175.277 Y110.947 E1.48543
G1 X175.626 Y111.905 E1.51389
G1 X175.626 Y112.972 E1.54369
G1 X175.983 Y113.032 F6000.000
G1 F540
G1 X175.983 Y113.158 E1.54721
G1 X175.591 Y114.235 E1.57918
G1 X174.745 Y115.243 E1.61592
G1 X173.753 Y115.816 E1.64789
G1 X172.457 Y116.045 E1.68464
G1 X171.329 Y115.846 E1.71661
G1 X170.188 Y115.187 E1.75335
G1 X169.452 Y114.310 E1.78532
G1 X169.002 Y113.073 E1.82207
G1 X169.002 Y111.927 E1.85404
G1 X169.452 Y110.690 E1.89078
G1 X170.188 Y109.813 E1.92276
G1 X171.329 Y109.154 E1.95950
G1 X172.438 Y108.959 E1.99094
G1 X173.751 Y109.183 E2.02811
G1 X174.745 Y109.757 E2.06016
G1 X175.591 Y110.765 E2.09690
G1 X175.983 Y111.842 E2.12887
G1 X175.983 Y112.972 E2.16043
G1 X176.340 Y113.032 F6000.000
G1 F540
G1 X176.340 Y113.221 E2.16570
G1 X175.905 Y114.416 E2.20119
G1 X174.978 Y115.521 E2.24145
G1 X173.877 Y116.157 E2.27693
G1 X172.457 Y116.407 E2.31719
G1 X171.205 Y116.186 E2.35267
G1 X169.955 Y115.465 E2.39293
G1 X169.138 Y114.491 E2.42842
G1 X168.645 Y113.136 E2.46868
G1 X168.645 Y111.864 E2.50417
G1 X169.138 Y110.509 E2.54443
G1 X169.955 Y109.535 E2.57991
G1 X171.205 Y108.814 E2.62017
G1 X172.437 Y108.596 E2.65510
G1 X173.874 Y108.841 E2.69578
G1 X174.978 Y109.479 E2.73137
G1 X175.905 Y110.584 E2.77163
G1 X176.340 Y111.779 E2.80712
G1 X176.340 Y112.972 E2.84043
G1 E2.34043 F2400.00000
G92 E0
G1 X115.269 Y113.032 F6000.000
G1 E0.50000 F2400.00000
G1 F540
G1 X114.963 Y113.872 E0.52494
G1 X114.279 Y114.688 E0.55466
G1 X113.505 Y115.135 E0.57960
G1 X112.457 Y115.319 E0.60931
G1 X111.576 Y115.164 E0.63426
G1 X110.654 Y114.632 E0.66397
G1 X110.080 Y113.947 E0.68891
G1 X109.716 Y112.947 E0.71863
G1 X109.716 Y112.053 E0.74357
G1 X110.080 Y111.053 E0.77329
G1 X110.654 Y110.368 E0.79823
G1 X111.576 Y109.836 E0.82794
G1 X112.440 Y109.684 E0.85241
G1 X113.505 Y109.865 E0.88256
G1 X114.279 Y110.312 E0.90752
G1 X114.963 Y111.128 E0.93723
G1 X115.269 Y111.968 E0.96217
G1 X115.269 Y112.972 E0.99022
G1 X115.269 Y113.032 F6000.000
G1 X115.626 Y113.032 F6000.000
G1 F540
G1 X115.626 Y113.095 E0.99197
G1 X115.277 Y114.053 E1.02043
G1 X114.512 Y114.965 E1.05366
G1 X113.629 Y115.475 E1.08212
G1 X112.457 Y115.682 E1.11534
G1 X111.452 Y115.505 E1.14380
G1 X110.421 Y114.910 E1.17703
G1 X109.766 Y114.129 E1.20549
G1 X109.359 Y113.010 E1.23872
G1 X109.359 Y111.990 E1.26718
G1 X109.766 Y110.871 E1.30041
G1 X110.421 Y110.090 E1.32886
G1 X111.452 Y109.495 E1.36209
G1 X112.439 Y109.321 E1.39005
G1 X113.628 Y109.524 E1.42371
G1 X114.512 Y110.035 E1.45221
G1 X115.277 Y110.947 E1.48544
G1 X115.626 Y111.905 E1.51390
G1 X115.626 Y112.972 E1.54369
G1 X115.983 Y113.032 F6000.000
G1 F540
G1 X115.983 Y113.158 E1.54721
G1 X115.591 Y114.235 E1.57918
G1 X114.745 Y115.243 E1.61592
G1 X113.753 Y115.816 E1.64790
G1 X112.457 Y116.045 E1.68464
G1 X111.328 Y115.846 E1.71661
G1 X110.188 Y115.187 E1.75335
G1 X109.452 Y114.310 E1.78532
G1 X109.002 Y113.073 E1.82207
G1 X109.002 Y111.927 E1.85404
G1 X109.452 Y110.690 E1.89079
G1 X110.188 Y109.813 E1.92276
G1 X111.328 Y109.154 E1.95950
G1 X112.438 Y108.959 E1.99094
G1 X113.751 Y109.183 E2.02812
G1 X114.745 Y109.757 E2.06016
G1 X115.591 Y110.765 E2.09690
G1 X115.983 Y111.842 E2.12888
G1 X115.983 Y112.972 E2.16043
G1 X116.340 Y113.032 F6000.000
G1 F540
G1 X116.340 Y113.221 E2.16571
G1 X115.905 Y114.416 E2.20119
G1 X114.978 Y115.521 E2.24145
G1 X113.877 Y116.157 E2.27694
G1 X112.457 Y116.407 E2.31719
G1 X111.204 Y116.186 E2.35268
G1 X109.955 Y115.465 E2.39294
G1 X109.138 Y114.491 E2.42842
G1 X108.645 Y113.136 E2.46868
G1 X108.645 Y111.864 E2.50417
G1 X109.138 Y110.509 E2.54443
G1 X109.955 Y109.535 E2.57992
G1 X111.204 Y108.814 E2.62017
G1 X112.437 Y108.596 E2.65510
G1 X113.874 Y108.841 E2.69579
G1 X114.978 Y109.479 E2.73138
G1 X115.905 Y110.584 E2.77163
G1 X116.340 Y111.779 E2.80712
G1 X116.340 Y112.972 E2.84044
G1 E2.34044 F2400.00000
G92 E0
G1 X129.716 Y112.947 F6000.000
G1 E0.50000 F2400.00000
G1 F540
G1 X129.716 Y112.053 E0.52494
G1 X130.080 Y111.053 E0.55466
G1 X130.654 Y110.368 E0.57960
G1 X131.577 Y109.836 E0.60932
G1 X132.440 Y109.684 E0.63378
G1 X133.505 Y109.865 E0.66393
G1 X134.279 Y110.312 E0.68889
G1 X134.963 Y111.128 E0.71860
G1 X135.269 Y111.968 E0.74355
G1 X135.269 Y113.032 E0.77326
G1 X134.963 Y113.872 E0.79821
G1 X134.279 Y114.688 E0.82792
G1 X133.505 Y115.135 E0.85286
G1 X132.457 Y115.319 E0.88258
G1 X131.577 Y115.164 E0.90752
G1 X130.654 Y114.632 E0.93723
G1 X130.080 Y113.947 E0.96217
G1 X129.736 Y113.003 E0.99022
G1 X129.716 Y112.947 F6000.000
G1 X129.359 Y112.947 F6000.000
G1 F540
G1 X129.359 Y111.990 E1.01692
G1 X129.766 Y110.871 E1.05015
G1 X130.421 Y110.090 E1.07860
G1 X131.453 Y109.495 E1.11183
G1 X132.439 Y109.321 E1.13979
G1 X133.628 Y109.524 E1.17345
G1 X134.512 Y110.035 E1.20195
G1 X135.277 Y110.947 E1.23518
G1 X135.626 Y111.905 E1.26364
G1 X135.626 Y113.095 E1.29687
G1 X135.277 Y114.053 E1.32532
G1 X134.512 Y114.965 E1.35855
G1 X133.629 Y115.475 E1.38701
G1 X132.457 Y115.682 E1.42024
G1 X131.453 Y115.505 E1.44869
G1 X130.421 Y114.910 E1.48192
G1 X129.766 Y114.129 E1.51038
G1 X129.359 Y113.007 E1.54369
G1 X129.002 Y112.947 F6000.000
G1 F540
G1 X129.002 Y111.927 E1.57215
G1 X129.452 Y110.690 E1.60889
G1 X130.188 Y109.813 E1.64086
G1 X131.329 Y109.154 E1.67761
G1 X132.438 Y108.959 E1.70904
G1 X133.751 Y109.183 E1.74622
G1 X134.745 Y109.757 E1.77827
G1 X135.591 Y110.765 E1.81501
G1 X135.983 Y111.842 E1.84698
G1 X135.983 Y113.158 E1.88373
G1 X135.591 Y114.235 E1.91570
G1 X134.745 Y115.243 E1.95244
G1 X133.753 Y115.816 E1.98441
G1 X132.457 Y116.045 E2.02116
G1 X131.329 Y115.846 E2.05313
G1 X130.188 Y115.187 E2.08987
G1 X129.452 Y114.310 E2.12184
G1 X129.002 Y113.073 E2.15859
G1 X129.002 Y113.007 E2.16043
G1 X128.645 Y112.947 F6000.000
G1 F540
G1 X128.645 Y111.864 E2.19064
G1 X129.138 Y110.509 E2.23090
G1 X129.955 Y109.535 E2.26639
G1 X131.205 Y108.814 E2.30665
G1 X132.437 Y108.596 E2.34157
G1 X133.874 Y108.841 E2.38226
G1 X134.978 Y109.479 E2.41785
G1 X135.905 Y110.584 E2.45811
G1 X136.340 Y111.779 E2.49359
G1 X136.340 Y113.221 E2.53386
G1 X135.905 Y114.416 E2.56934
G1 X134.978 Y115.521 E2.60960
G1 X133.877 Y116.157 E2.64508
G1 X132.457 Y116.407 E2.68534
G1 X131.205 Y116.186 E2.72083
G1 X129.955 Y115.465 E2.76109
G1 X129.138 Y114.491 E2.79657
G1 X128.645 Y113.136 E2.83683
G1 X128.645 Y113.007 E2.84043
G1 E2.34043 F2400.00000
G92 E0
G1 X132.440 Y169.683 F6000.000
G1 E0.50000 F2400.00000
G1 F540
G1 X133.505 Y169.865 E0.53015
G1 X134.279 Y170.312 E0.55510
G1 X134.963 Y171.128 E0.58482
G1 X135.269 Y171.968 E0.60976
G1 X135.269 Y173.032 E0.63948
G1 X134.963 Y173.872 E0.66442
G1 X134.279 Y174.688 E0.69414
G1 X133.505 Y175.135 E0.71908
G1 X132.457 Y175.319 E0.74879
G1 X131.577 Y175.164 E0.77373
G1 X130.654 Y174.632 E0.80345
G1 X130.080 Y173.947 E0.82839
G1 X129.716 Y172.947 E0.85811
G1 X129.716 Y172.053 E0.88305
G1 X130.080 Y171.053 E0.91277
G1 X130.654 Y170.368 E0.93771
G1 X131.577 Y169.836 E0.96742
G1 X132.381 Y169.694 E0.99022
G1 X132.440 Y169.683 F6000.000
G1 X132.378 Y169.332 F6000.000
G1 F540
G1 X132.439 Y169.321 E0.99195
G1 X133.628 Y169.524 E1.02561
G1 X134.512 Y170.034 E1.05411
G1 X135.277 Y170.947 E1.08734
G1 X135.626 Y171.905 E1.11579
G1 X135.626 Y173.095 E1.14903
G1 X135.277 Y174.053 E1.17748
G1 X134.512 Y174.965 E1.21071
G1 X133.629 Y175.475 E1.23917
G1 X132.457 Y175.682 E1.27240
G1 X131.453 Y175.505 E1.30085
G1 X130.421 Y174.910 E1.33408
G1 X129.766 Y174.129 E1.36254
G1 X129.359 Y173.010 E1.39577
G1 X129.359 Y171.990 E1.42423
G1 X129.766 Y170.871 E1.45746
G1 X130.421 Y170.090 E1.48592
G1 X131.453 Y169.495 E1.51915
G1 X132.319 Y169.342 E1.54369
G1 X132.316 Y168.980 F6000.000
G1 F540
G1 X132.438 Y168.959 E1.54715
G1 X133.751 Y169.183 E1.58433
G1 X134.745 Y169.757 E1.61637
G1 X135.591 Y170.765 E1.65312
G1 X135.983 Y171.842 E1.68509
G1 X135.983 Y173.158 E1.72184
G1 X135.591 Y174.235 E1.75381
G1 X134.745 Y175.243 E1.79055
G1 X133.753 Y175.816 E1.82252
G1 X132.457 Y176.045 E1.85926
G1 X131.329 Y175.846 E1.89123
G1 X130.188 Y175.187 E1.92798
G1 X129.452 Y174.310 E1.95995
G1 X129.002 Y173.073 E1.99669
G1 X129.002 Y171.927 E2.02867
G1 X129.452 Y170.690 E2.06541
G1 X130.188 Y169.812 E2.09739
G1 X131.329 Y169.154 E2.13413
G1 X132.257 Y168.991 E2.16043
G1 X132.254 Y168.629 F6000.000
G1 F540
G1 X132.437 Y168.596 E2.16562
G1 X133.874 Y168.841 E2.20631
G1 X134.978 Y169.479 E2.24190
G1 X135.905 Y170.584 E2.28216
G1 X136.340 Y171.779 E2.31764
G1 X136.340 Y173.221 E2.35791
